cloud-cog-outline.svg

<svg fill="currentColor" viewBox="0 0 24 24"><path d="M12 19c0 .34.03.67.08 1H6.5c-1.5 0-2.81-.5-3.89-1.57C1.54 17.38 1 16.09 1 14.58q0-1.95 1.17-3.48C3.34 9.57 4 9.43 5.25 9.15c.42-1.53 1.25-2.77 2.5-3.72S10.42 4 12 4c1.95 0 3.6.68 4.96 2.04S19 9.05 19 11c1.15.13 2.1.63 2.86 1.5.06.05.1.13.14.19-.9-.44-1.92-.69-3-.69-.69 0-1.37.11-2 .29V11c0-1.38-.5-2.56-1.46-3.54C14.56 6.5 13.38 6 12 6s-2.56.5-3.54 1.46C7.5 8.44 7 9.62 7 11h-.5c-.97 0-1.79.34-2.47 1.03-.69.68-1.03 1.5-1.03 2.47s.34 1.79 1.03 2.5c.68.66 1.5 1 2.47 1h5.58c-.05.33-.08.66-.08 1m11.83 1.64-1 1.73c-.07.13-.2.13-.33.13l-1.23-.5c-.27.18-.54.34-.84.47l-.19 1.32c-.02.12-.13.21-.24.21h-2c-.14 0-.24-.09-.26-.21l-.19-1.32c-.31-.12-.59-.29-.85-.47l-1.24.5c-.12 0-.25 0-.31-.13l-1-1.73a.26.26 0 0 1 .06-.32l1.06-.82a4.2 4.2 0 0 1 0-1l-1.06-.82a.25.25 0 0 1-.06-.32l1-1.73c.07-.13.2-.13.31-.13l1.24.5c.26-.18.55-.34.85-.47l.19-1.32A.26.26 0 0 1 18 14h2c.11 0 .22.09.23.21l.19 1.32c.31.12.58.29.85.47l1.23-.5c.13 0 .26 0 .32.13l1 1.73c.06.11.03.24-.06.32l-1.06.82c.03.17.04.33.04.5s-.02.33-.04.5l1.07.82c.09.08.12.21.06.32M20.5 19c0-.83-.68-1.5-1.5-1.5s-1.5.67-1.5 1.5.66 1.5 1.5 1.5 1.5-.67 1.5-1.5"/></svg>

<svg  viewBox="0 0 24 24" fill="currentColor"><path  d="M12 19C12 19.34 12.03 19.67 12.08 20H6.5C5 20 3.69 19.5 2.61 18.43C1.54 17.38 1 16.09 1 14.58C1 13.28 1.39 12.12 2.17 11.1S4 9.43 5.25 9.15C5.67 7.62 6.5 6.38 7.75 5.43S10.42 4 12 4C13.95 4 15.6 4.68 16.96 6.04C18.32 7.4 19 9.05 19 11C20.15 11.13 21.1 11.63 21.86 12.5C21.92 12.55 21.96 12.63 22 12.69C21.1 12.25 20.08 12 19 12C18.31 12 17.63 12.11 17 12.29V11C17 9.62 16.5 8.44 15.54 7.46C14.56 6.5 13.38 6 12 6S9.44 6.5 8.46 7.46C7.5 8.44 7 9.62 7 11H6.5C5.53 11 4.71 11.34 4.03 12.03C3.34 12.71 3 13.53 3 14.5S3.34 16.29 4.03 17C4.71 17.66 5.53 18 6.5 18H12.08C12.03 18.33 12 18.66 12 19M23.83 20.64L22.83 22.37C22.76 22.5 22.63 22.5 22.5 22.5L21.27 22C21 22.18 20.73 22.34 20.43 22.47L20.24 23.79C20.22 23.91 20.11 24 20 24H18C17.86 24 17.76 23.91 17.74 23.79L17.55 22.47C17.24 22.35 16.96 22.18 16.7 22L15.46 22.5C15.34 22.5 15.21 22.5 15.15 22.37L14.15 20.64C14.09 20.53 14.12 20.4 14.21 20.32L15.27 19.5C15.25 19.33 15.24 19.17 15.24 19S15.25 18.67 15.27 18.5L14.21 17.68C14.11 17.6 14.09 17.47 14.15 17.36L15.15 15.63C15.22 15.5 15.35 15.5 15.46 15.5L16.7 16C16.96 15.82 17.25 15.66 17.55 15.53L17.74 14.21C17.76 14.09 17.87 14 18 14H20C20.11 14 20.22 14.09 20.23 14.21L20.42 15.53C20.73 15.65 21 15.82 21.27 16L22.5 15.5C22.63 15.5 22.76 15.5 22.82 15.63L23.82 17.36C23.88 17.47 23.85 17.6 23.76 17.68L22.7 18.5C22.73 18.67 22.74 18.83 22.74 19S22.72 19.33 22.7 19.5L23.77 20.32C23.86 20.4 23.89 20.53 23.83 20.64M20.5 19C20.5 18.17 19.82 17.5 19 17.5S17.5 18.17 17.5 19 18.16 20.5 19 20.5 20.5 19.83 20.5 19Z"/></svg>
